X: 124
T: John Howett
M: C|
R: reel
Z: 2011 John Chambers <jc:trillian.mit.edu>
S: printed MS of unknown origin
K: D
fg |\
"D"a2fd "A"g2ec | "D"d2AG FDDF | "Em"E2FG ABcd | "A7"eAfA g2fg |
"D"a2fd "A"g2ec | "D"d2AG FDDF | "Em"E2FG ABcd | "A7"eABc "D"d2 :|
|: A2 |\
"D"defg afdf | "G"gfed "A"ceAe | "D"defg afdf | "Em"gbag "A"a4 |
"D"abaf "G"gfed | "A"eAfA "Em"GFED | "D"F2AF "G"GABG | "A"Addc "D"d2 :|

%%newpage

